icons/folder-lock-fill.svg

<svg viewBox="0 0 24 24" fill="currentColor" xmlns="http://www.w3.org/2000/svg">
    <path d="M12.4142 5H21C21.5523 5 22 5.44772 22 6V20C22 20.5523 21.5523 21 21 21H3C2.44772 21 2 20.5523 2 20V4C2 3.44772 2.44772 3 3 3H10.4142L12.4142 5ZM15 13V12C15 10.3431 13.6569 9 12 9C10.3431 9 9 10.3431 9 12V13H8V17H16V13H15ZM13 13H11V12C11 11.4477 11.4477 11 12 11C12.5523 11 13 11.4477 13 12V13Z"/>
</svg>

<svg xmlns="http://www.w3.org/2000/svg" viewBox="0 0 24 24">
    <g>
        <path fill="none" d="M0 0h24v24H0z"/>
        <path d="M12.414 5H21a1 1 0 0 1 1 1v14a1 1 0 0 1-1 1H3a1 1 0 0 1-1-1V4a1 1 0 0 1 1-1h7.414l2 2zM15 13v-1a3 3 0 0 0-6 0v1H8v4h8v-4h-1zm-2 0h-2v-1a1 1 0 0 1 2 0v1z"/>
    </g>
</svg>
